; generated by PrusaSlicer 2.7.4 on 2024-05-01 at 20:15:49 UTC


;
;
; 

; external perimeters extrusion width = 0.45mm
; perimeters extrusion width = 0.45mm
; infill extrusion width = 0.45mm
; solid infill extrusion width = 0.45mm
; top infill extrusion width = 0.40mm
; first layer extrusion width = 0.42mm

; external perimeters extrusion width = 0.45mm
; perimeters extrusion width = 0.45mm
; infill extrusion width = 0.45mm
; solid infill extrusion width = 0.45mm
; top infill extrusion width = 0.40mm
; first layer extrusion width = 0.42mm

M73 P0 R80
M73 Q0 S81
M201 X1000 Y1000 Z200 E5000 ; sets maximum accelerations, mm/sec^2
M203 X200 Y200 Z12 E120 ; sets maximum feedrates, mm / sec
M204 S1250 T1250 ; sets acceleration (S) and retract acceleration (R), mm/sec^2
M205 X8.00 Y8.00 Z0.40 E4.50 ; sets the jerk limits, mm/sec
M205 S0 T0 ; sets the minimum extruding and travel feed rate, mm/sec

; printing object j-link-enclosure-lid.stl id:0 copy 0
; stop printing object j-link-enclosure-lid.stl id:0 copy 0
; printing object j-link-enclosure-floor.stl id:1 copy 0
; stop printing object j-link-enclosure-floor.stl id:1 copy 0

;TYPE:Custom
M862.3 P "MK3S" ; printer model check
M862.1 P0.4 ; nozzle diameter check
M115 U3.13.3 ; tell printer latest fw version
G90 ; use absolute coordinates
M83 ; extruder relative mode
M104 S215 ; set extruder temp
M140 S60 ; set bed temp
M190 S60 ; wait for bed temp
M109 S215 ; wait for extruder temp
G28 W ; home all without mesh bed level
G80 X78.6844 Y69.2344 W91.3312 H71.5312 ; mesh bed levelling

G1 Z0.2 F720
G1 Y-3 F1000 ; go outside print area
G92 E0
G1 X60 E9 F1000 ; intro line
G1 X100 E12.5 F1000 ; intro line

G92 E0
M221 S95

; Don't change E values below. Excessive value can damage the printer.

M907 E538 ; set extruder motor current
G21 ; set units to millimeters
G90 ; use absolute coordinates
M83 ; use relative distances for extrusion

M900 K0.05 ; Filament gcode LA 1.5
M900 K30 ; Filament gcode LA 1.0




M107
;LAYER_CHANGE
;Z:0.2
;HEIGHT:0.2
G1 E-.8 F2100
G1 Z.6 F720
G1 X79.265 Y71.443 F10800
G1 Z.2 F720
G1 E.8 F2100
M204 S800
;TYPE:Skirt/Brim
;WIDTH:0.42
G1 F1200
G1 X80.31 Y70.567 E.04275
G1 X81.201 Y70.373 E.02859
G1 X127.55 Y69.423 E1.45355
G1 X166.95 Y69.423 E1.23536
G1 X168.631 Y70.119 E.05705
G1 X169.131 Y70.619 E.02217
G1 X169.827 Y72.3 E.05705
G1 X169.827 Y137.7 E2.05057
G1 X169.131 Y139.381 E.05705
G1 X168.631 Y139.881 E.02217
G1 X166.95 Y140.577 E.05705
G1 X127.501 Y140.577 E1.2369
G1 X81.201 Y139.627 E1.45201
G1 X79.903 Y139.208 E.04277
G1 X79.048 Y138.145 E.04277
G1 X78.873 Y137.25 E.02859
G1 X78.873 Y72.75 E2.02235
G1 X79.247 Y71.5 E.04091
M73 P0 R79
M204 S1000
;WIPE_START
G1 F8640
G1 X79.265 Y71.443 E-.0138
G1 X80.31 Y70.567 E-.31486
G1 X81.201 Y70.373 E-.21055
G1 X82.33 Y70.35 E-.26079
;WIPE_END
G1 Z.6 F720
; printing object j-link-enclosure-lid.stl id:0 copy 0
G1 X166.263 Y137.013 F10800
G1 Z.2 F720
G1 E.8 F2100
M204 S800
;TYPE:Perimeter
;WIDTH:0.419999
G1 F1200
G1 X128.237 Y137.013 E1.19228
G1 X128.237 Y72.987 E2.00749
G1 X166.263 Y72.987 E1.19228
G1 X166.263 Y92 E.59614
G1 X166.263 Y136.953 E1.40947
M204 S1000
G1 X166.64 Y137.39 F10800
M204 S800
;TYPE:External perimeter
G1 F1200
G1 X127.86 Y137.39 E1.21592
G1 X127.86 Y72.61 E2.03113
G1 X166.64 Y72.61 E1.21592
G1 X166.64 Y92 E.60796
G1 X166.64 Y137.33 E1.42129
M204 S1000
;WIPE_START
G1 F8640
G1 X166.64 Y137.39 E-.01385
G1 X163.235 Y137.39 E-.78615
;WIPE_END
G1 Z.6 F720
G1 X166.093 Y73.92 F10800
G1 Z.2 F720
G1 E.8 F2100
M204 S800
;TYPE:Solid infill
;WIDTH:0.420471
G1 F1200
G1 X165.5 Y73.326 E.02635
G1 X164.966 Y73.326 E.01676
G1 X165.924 Y74.284 E.04253
G1 X165.924 Y74.818 E.01676
G1 X164.432 Y73.326 E.06624
G1 X163.898 Y73.326 E.01676
G1 X165.924 Y75.352 E.08995
G1 X165.924 Y75.886 E.01676
G1 X163.364 Y73.326 E.11366
G1 X162.83 Y73.326 E.01676
G1 X165.924 Y76.42 E.13736
G1 X165.924 Y76.954 E.01676
G1 X162.296 Y73.326 E.16107
G1 X161.762 Y73.326 E.01676
G1 X165.924 Y77.488 E.18478
G1 X165.924 Y78.022 E.01676
G1 X161.228 Y73.326 E.20849
G1 X160.694 Y73.326 E.01676
G1 X165.924 Y78.556 E.2322
G1 X165.924 Y79.09 E.01676
G1 X160.16 Y73.326 E.2559
G1 X159.626 Y73.326 E.01676
M73 P1 R79
G1 X165.924 Y79.624 E.27961
G1 X165.924 Y80.158 E.01676
M73 Q1 S81
G1 X159.092 Y73.326 E.30332
G1 X158.558 Y73.326 E.01676
G1 X165.924 Y80.692 E.32703
G1 X165.924 Y81.225 E.01673
G1 X158.025 Y73.326 E.35069
G1 X157.491 Y73.326 E.01676
G1 X165.924 Y81.759 E.3744
G1 X165.924 Y82.293 E.01676
G1 X156.957 Y73.326 E.39811
G1 X156.423 Y73.326 E.01676
M73 Q1 S80
G1 X165.924 Y82.827 E.42182
G1 X165.924 Y83.361 E.01676
G1 X155.889 Y73.326 E.44552
G1 X155.355 Y73.326 E.01676
G1 X165.924 Y83.895 E.46923
G1 X165.924 Y84.429 E.01676
G1 X154.821 Y73.326 E.49294
G1 X154.287 Y73.326 E.01676
G1 X165.924 Y84.963 E.51665
G1 X165.924 Y85.497 E.01676
G1 X153.753 Y73.326 E.54036
G1 X153.219 Y73.326 E.01676
G1 X165.924 Y86.031 E.56407
G1 X165.924 Y86.565 E.01676
G1 X152.685 Y73.326 E.58777
G1 X152.151 Y73.326 E.01676
G1 X165.924 Y87.099 E.61148
G1 X165.924 Y87.633 E.01676
G1 X151.617 Y73.326 E.63519
G1 X151.083 Y73.326 E.01676
G1 X165.924 Y88.167 E.6589
G1 X165.924 Y88.701 E.01676
G1 X150.549 Y73.326 E.68261
G1 X150.015 Y73.326 E.01676
G1 X165.924 Y89.235 E.70631
G1 X165.924 Y89.768 E.01673
G1 X149.482 Y73.326 E.72998
G1 X148.948 Y73.326 E.01676
G1 X165.924 Y90.302 E.75369
G1 X165.924 Y90.836 E.01676
G1 X148.414 Y73.326 E.77739
G1 X147.88 Y73.326 E.01676
G1 X165.924 Y91.37 E.8011
G1 X165.924 Y91.904 E.01676
G1 X147.346 Y73.326 E.82481
G1 X146.812 Y73.326 E.01676
G1 X165.924 Y92.438 E.84852
G1 X165.924 Y92.972 E.01676
G1 X146.278 Y73.326 E.87223
G1 X145.744 Y73.326 E.01676
G1 X165.924 Y93.506 E.89593
G1 X165.924 Y94.04 E.01676
G1 X145.21 Y73.326 E.91964
G1 X144.676 Y73.326 E.01676
G1 X165.924 Y94.574 E.94335
G1 X165.924 Y95.108 E.01676
G1 X144.142 Y73.326 E.96706
G1 X143.608 Y73.326 E.01676
G1 X165.924 Y95.642 E.99077
G1 X165.924 Y96.176 E.01676
G1 X143.074 Y73.326 E1.01447
G1 X142.54 Y73.326 E.01676
M73 P1 R78
G1 X165.924 Y96.71 E1.03818
G1 X165.924 Y97.244 E.01676
G1 X142.006 Y73.326 E1.06189
G1 X141.472 Y73.326 E.01676
G1 X165.924 Y97.778 E1.0856
G1 X165.924 Y98.311 E.01673
G1 X140.939 Y73.326 E1.10926
G1 X140.405 Y73.326 E.01676
G1 X165.924 Y98.845 E1.13297
G1 X165.924 Y99.379 E.01676
G1 X139.871 Y73.326 E1.15668
G1 X139.337 Y73.326 E.01676
G1 X165.924 Y99.913 E1.18039
G1 X165.924 Y100.447 E.01676
G1 X138.803 Y73.326 E1.20409
G1 X138.269 Y73.326 E.01676
M73 P2 R78
G1 X165.924 Y100.981 E1.2278
G1 X165.924 Y101.515 E.01676
M73 Q2 S80
G1 X137.735 Y73.326 E1.25151
G1 X137.201 Y73.326 E.01676
G1 X165.924 Y102.049 E1.27522
G1 X165.924 Y102.583 E.01676
G1 X136.667 Y73.326 E1.29893
G1 X136.133 Y73.326 E.01676
G1 X165.924 Y103.117 E1.32263
G1 X165.924 Y103.651 E.01676
G1 X135.599 Y73.326 E1.34634
G1 X135.065 Y73.326 E.01676
G1 X165.924 Y104.185 E1.37005
G1 X165.924 Y104.719 E.01676
M73 Q2 S79
G1 X134.531 Y73.326 E1.39376
G1 X133.997 Y73.326 E.01676
G1 X165.924 Y105.253 E1.41747
G1 X165.924 Y105.787 E.01676
G1 X133.463 Y73.326 E1.44117
G1 X132.929 Y73.326 E.01676
G1 X165.924 Y106.321 E1.46488
G1 X165.924 Y106.854 E.01673
G1 X132.396 Y73.326 E1.48855
G1 X131.862 Y73.326 E.01676
G1 X165.924 Y107.388 E1.51225
G1 X165.924 Y107.922 E.01676
G1 X131.328 Y73.326 E1.53596
G1 X130.794 Y73.326 E.01676
G1 X165.924 Y108.456 E1.55967
G1 X165.924 Y108.99 E.01676
G1 X130.26 Y73.326 E1.58338
G1 X129.726 Y73.326 E.01676
G1 X165.924 Y109.524 E1.60709
G1 X165.924 Y110.058 E.01676
G1 X129.192 Y73.326 E1.63079
G1 X128.658 Y73.326 E.01676
G1 X165.924 Y110.592 E1.6545
G1 X165.924 Y111.126 E.01676
M73 P2 R77
G1 X128.576 Y73.779 E1.65812
G1 X128.576 Y74.313 E.01676
G1 X165.924 Y111.66 E1.65812
G1 X165.924 Y112.194 E.01676
M73 P3 R77
M73 Q3 S79
G1 X128.576 Y74.847 E1.65812
G1 X128.576 Y75.381 E.01676
G1 X165.924 Y112.728 E1.65812
G1 X165.924 Y113.262 E.01676
G1 X128.576 Y75.915 E1.65812
G1 X128.576 Y76.449 E.01676
G1 X165.924 Y113.796 E1.65812
G1 X165.924 Y114.33 E.01676
G1 X128.576 Y76.983 E1.65812
G1 X128.576 Y77.516 E.01673
G1 X165.924 Y114.864 E1.65814
G1 X165.924 Y115.397 E.01673
G1 X128.576 Y78.05 E1.65812
G1 X128.576 Y78.584 E.01676
G1 X165.924 Y115.931 E1.65812
G1 X165.924 Y116.465 E.01676
G1 X128.576 Y79.118 E1.65812
G1 X128.576 Y79.652 E.01676
G1 X165.924 Y116.999 E1.65812
G1 X165.924 Y117.533 E.01676
M73 Q3 S78
G1 X128.576 Y80.186 E1.65812
G1 X128.576 Y80.72 E.01676
G1 X165.924 Y118.067 E1.65812
G1 X165.924 Y118.601 E.01676
G1 X128.576 Y81.254 E1.65812
G1 X128.576 Y81.788 E.01676
G1 X165.924 Y119.135 E1.65812
G1 X165.924 Y119.669 E.01676
G1 X128.576 Y82.322 E1.65812
G1 X128.576 Y82.856 E.01676
G1 X165.924 Y120.203 E1.65812
G1 X165.924 Y120.737 E.01676
G1 X128.576 Y83.39 E1.65812
G1 X128.576 Y83.924 E.01676
G1 X165.924 Y121.271 E1.65812
G1 X165.924 Y121.805 E.01676
M73 P4 R77
G1 X128.576 Y84.458 E1.65812
G1 X128.576 Y84.992 E.01676
M73 Q4 S78
G1 X165.924 Y122.339 E1.65812
G1 X165.924 Y122.873 E.01676
G1 X128.576 Y85.526 E1.65812
G1 X128.576 Y86.059 E.01673
M73 P4 R76
G1 X165.924 Y123.407 E1.65814
G1 X165.924 Y123.941 E.01676
G1 X128.576 Y86.593 E1.65814
G1 X128.576 Y87.127 E.01676
G1 X165.924 Y124.474 E1.65812
G1 X165.924 Y125.008 E.01676
G1 X128.576 Y87.661 E1.65812
G1 X128.576 Y88.195 E.01676
G1 X165.924 Y125.542 E1.65812
G1 X165.924 Y126.076 E.01676
G1 X128.576 Y88.729 E1.65812
G1 X128.576 Y89.263 E.01676
G1 X165.924 Y126.61 E1.65812
G1 X165.924 Y127.144 E.01676
G1 X128.576 Y89.797 E1.65812
G1 X128.576 Y90.331 E.01676
G1 X165.924 Y127.678 E1.65812
G1 X165.924 Y128.212 E.01676
G1 X128.576 Y90.865 E1.65812
G1 X128.576 Y91.399 E.01676
G1 X165.924 Y128.746 E1.65812
G1 X165.924 Y129.28 E.01676
M73 Q4 S77
G1 X128.576 Y91.933 E1.65812
G1 X128.576 Y92.467 E.01676
G1 X165.924 Y129.814 E1.65812
G1 X165.924 Y130.348 E.01676
G1 X128.576 Y93.001 E1.65812
G1 X128.576 Y93.535 E.01676
G1 X165.924 Y130.882 E1.65812
G1 X165.924 Y131.416 E.01676
M73 P5 R76
G1 X128.576 Y94.069 E1.65812
G1 X128.576 Y94.602 E.01673
M73 Q5 S77
G1 X165.924 Y131.95 E1.65814
G1 X165.924 Y132.484 E.01676
G1 X128.576 Y95.136 E1.65814
G1 X128.576 Y95.67 E.01676
G1 X165.924 Y133.017 E1.65812
G1 X165.924 Y133.551 E.01676
G1 X128.576 Y96.204 E1.65812
G1 X128.576 Y96.738 E.01676
G1 X165.924 Y134.085 E1.65812
G1 X165.924 Y134.619 E.01676
G1 X128.576 Y97.272 E1.65812
G1 X128.576 Y97.806 E.01676
M73 P5 R75
G1 X165.924 Y135.153 E1.65812
G1 X165.924 Y135.687 E.01676
G1 X128.576 Y98.34 E1.65812
G1 X128.576 Y98.874 E.01676
G1 X165.924 Y136.221 E1.65812
G1 X165.924 Y136.674 E.01422
G1 X165.842 Y136.674 E.00257
G1 X128.576 Y99.408 E1.6545
G1 X128.576 Y99.942 E.01676
G1 X165.308 Y136.674 E1.63079
G1 X164.774 Y136.674 E.01676
G1 X128.576 Y100.476 E1.60709
G1 X128.576 Y101.01 E.01676
G1 X164.24 Y136.674 E1.58338
G1 X163.706 Y136.674 E.01676
G1 X128.576 Y101.544 E1.55967
G1 X128.576 Y102.078 E.01676
G1 X163.172 Y136.674 E1.53596
G1 X162.638 Y136.674 E.01676
G1 X128.576 Y102.612 E1.51225
G1 X128.576 Y103.145 E.01673
G1 X162.105 Y136.674 E1.48859
G1 X161.571 Y136.674 E.01676
M73 P6 R75
G1 X128.576 Y103.679 E1.46488
G1 X128.576 Y104.213 E.01676
M73 Q5 S76
G1 X161.037 Y136.674 E1.44117
G1 X160.503 Y136.674 E.01676
M73 Q6 S76
G1 X128.576 Y104.747 E1.41747
G1 X128.576 Y105.281 E.01676
G1 X159.969 Y136.674 E1.39376
G1 X159.435 Y136.674 E.01676
G1 X128.576 Y105.815 E1.37005
G1 X128.576 Y106.349 E.01676
G1 X158.901 Y136.674 E1.34634
G1 X158.367 Y136.674 E.01676
G1 X128.576 Y106.883 E1.32263
G1 X128.576 Y107.417 E.01676
G1 X157.833 Y136.674 E1.29893
G1 X157.299 Y136.674 E.01676
G1 X128.576 Y107.951 E1.27522
G1 X128.576 Y108.485 E.01676
G1 X156.765 Y136.674 E1.25151
G1 X156.231 Y136.674 E.01676
G1 X128.576 Y109.019 E1.2278
G1 X128.576 Y109.553 E.01676
G1 X155.697 Y136.674 E1.20409
G1 X155.163 Y136.674 E.01676
G1 X128.576 Y110.087 E1.18039
G1 X128.576 Y110.621 E.01676
G1 X154.629 Y136.674 E1.15668
G1 X154.095 Y136.674 E.01676
G1 X128.576 Y111.155 E1.13297
G1 X128.576 Y111.688 E.01673
M73 P6 R74
G1 X153.562 Y136.674 E1.10931
G1 X153.028 Y136.674 E.01676
G1 X128.576 Y112.222 E1.0856
G1 X128.576 Y112.756 E.01676
G1 X152.494 Y136.674 E1.06189
G1 X151.96 Y136.674 E.01676
G1 X128.576 Y113.29 E1.03818
G1 X128.576 Y113.824 E.01676
G1 X151.426 Y136.674 E1.01447
G1 X150.892 Y136.674 E.01676
G1 X128.576 Y114.358 E.99077
G1 X128.576 Y114.892 E.01676
G1 X150.358 Y136.674 E.96706
G1 X149.824 Y136.674 E.01676
G1 X128.576 Y115.426 E.94335
G1 X128.576 Y115.96 E.01676
G1 X149.29 Y136.674 E.91964
G1 X148.756 Y136.674 E.01676
G1 X128.576 Y116.494 E.89593
G1 X128.576 Y117.028 E.01676
M73 P7 R74
G1 X148.222 Y136.674 E.87223
G1 X147.688 Y136.674 E.01676
G1 X128.576 Y117.562 E.84852
G1 X128.576 Y118.096 E.01676
G1 X147.154 Y136.674 E.82481
G1 X146.62 Y136.674 E.01676
G1 X128.576 Y118.63 E.8011
G1 X128.576 Y119.164 E.01676
M73 Q7 S76
G1 X146.086 Y136.674 E.77739
G1 X145.552 Y136.674 E.01676
G1 X128.576 Y119.698 E.75369
G1 X128.576 Y120.231 E.01673
G1 X145.019 Y136.674 E.73002
G1 X144.485 Y136.674 E.01676
G1 X128.576 Y120.765 E.70631
G1 X128.576 Y121.299 E.01676
G1 X143.951 Y136.674 E.68261
G1 X143.417 Y136.674 E.01676
G1 X128.576 Y121.833 E.6589
G1 X128.576 Y122.367 E.01676
G1 X142.883 Y136.674 E.63519
G1 X142.349 Y136.674 E.01676
M73 Q7 S75
G1 X128.576 Y122.901 E.61148
G1 X128.576 Y123.435 E.01676
G1 X141.815 Y136.674 E.58777
G1 X141.281 Y136.674 E.01676
G1 X128.576 Y123.969 E.56407
G1 X128.576 Y124.503 E.01676
G1 X140.747 Y136.674 E.54036
G1 X140.213 Y136.674 E.01676
G1 X128.576 Y125.037 E.51665
G1 X128.576 Y125.571 E.01676
G1 X139.679 Y136.674 E.49294
G1 X139.145 Y136.674 E.01676
G1 X128.576 Y126.105 E.46923
G1 X128.576 Y126.639 E.01676
G1 X138.611 Y136.674 E.44552
G1 X138.077 Y136.674 E.01676
G1 X128.576 Y127.173 E.42182
G1 X128.576 Y127.707 E.01676
G1 X137.543 Y136.674 E.39811
G1 X137.009 Y136.674 E.01676
G1 X128.576 Y128.241 E.3744
G1 X128.576 Y128.774 E.01673
G1 X136.476 Y136.674 E.35074
G1 X135.942 Y136.674 E.01676
G1 X128.576 Y129.308 E.32703
G1 X128.576 Y129.842 E.01676
G1 X135.408 Y136.674 E.30332
G1 X134.874 Y136.674 E.01676
G1 X128.576 Y130.376 E.27961
G1 X128.576 Y130.91 E.01676
G1 X134.34 Y136.674 E.2559
G1 X133.806 Y136.674 E.01676
G1 X128.576 Y131.444 E.2322
G1 X128.576 Y131.978 E.01676
G1 X133.272 Y136.674 E.20849
G1 X132.738 Y136.674 E.01676
G1 X128.576 Y132.512 E.18478
G1 X128.576 Y133.046 E.01676
G1 X132.204 Y136.674 E.16107
G1 X131.67 Y136.674 E.01676
G1 X128.576 Y133.58 E.13736
G1 X128.576 Y134.114 E.01676
G1 X131.136 Y136.674 E.11366
G1 X130.602 Y136.674 E.01676
G1 X128.576 Y134.648 E.08995
G1 X128.576 Y135.182 E.01676
G1 X130.068 Y136.674 E.06624
G1 X129.534 Y136.674 E.01676
G1 X128.576 Y135.716 E.04253
G1 X128.576 Y136.25 E.01676
G1 X129.17 Y136.843 E.02635
M204 S1000
;WIPE_START
G1 F8640
G1 X128.576 Y136.25 E-.19381
G1 X128.576 Y135.716 E-.1233
G1 X129.534 Y136.674 E-.31283
G1 X130.068 Y136.674 E-.1233
G1 X129.925 Y136.531 E-.04676
;WIPE_END
G1 Z.6 F720
; stop printing object j-link-enclosure-lid.stl id:0 copy 0
; printing object j-link-enclosure-floor.stl id:1 copy 0
G1 X118.966 Y103.319 F10800
G1 Z.2 F720
G1 E.8 F2100
M204 S800
;TYPE:Perimeter
;WIDTH:0.419999
G1 F1200
G1 X118.966 Y103.819 E.01568
;WIDTH:0.414615
G1 X118.98 Y104.319 E.01546
;WIDTH:0.395503
G1 X118.975 Y104.845 E.01542
;WIDTH:0.419999
G1 X118.963 Y136.463 E.99136
G1 X82.037 Y136.463 E1.15779
G1 X82.025 Y104.81 E.99246
;WIDTH:0.396532
G1 X82.022 Y104.281 E.01555
;WIDTH:0.419999
G1 X82.037 Y103.65 E.01979
G1 X82.037 Y73.537 E.94417
G1 X118.963 Y73.537 E1.15779
G1 X118.963 Y91.888 E.57538
G1 X118.965 Y103.259 E.35653
M204 S1000
;WIPE_START
G1 F8640
G1 X118.966 Y103.319 E-.01386
G1 X118.966 Y103.819 E-.11545
G1 X118.98 Y104.319 E-.1155
G1 X118.975 Y104.845 E-.12146
G1 X118.974 Y106.723 E-.43373
;WIPE_END
G1 Z.6 F720
G1 X81.66 Y136.84 F10800
G1 Z.2 F720
G1 E.8 F2100
M204 S800
;TYPE:External perimeter
G1 F1200
G1 X81.66 Y73.16 E1.99664
G1 X119.34 Y73.16 E1.18143
G1 X119.34 Y91.888 E.5872
M73 P7 R73
G1 X119.34 Y136.84 E1.40944
G1 X81.72 Y136.84 E1.17955
M73 P8 R73
M204 S1000
;WIPE_START
G1 F8640
G1 X81.66 Y136.84 E-.01385
G1 X81.66 Y133.435 E-.78615
;WIPE_END
