; generated by PrusaSlicer 2.7.4 on 2024-05-03 at 15:32:02 UTC


;
;
; 

; external perimeters extrusion width = 0.45mm
; perimeters extrusion width = 0.45mm
; infill extrusion width = 0.45mm
; solid infill extrusion width = 0.45mm
; top infill extrusion width = 0.40mm
; first layer extrusion width = 0.42mm

; external perimeters extrusion width = 0.45mm
; perimeters extrusion width = 0.45mm
; infill extrusion width = 0.45mm
; solid infill extrusion width = 0.45mm
; top infill extrusion width = 0.40mm
; first layer extrusion width = 0.42mm

M73 P0 R94
M73 Q0 S95
M201 X1000 Y1000 Z200 E5000 ; sets maximum accelerations, mm/sec^2
M203 X200 Y200 Z12 E120 ; sets maximum feedrates, mm / sec
M204 S1250 T1250 ; sets acceleration (S) and retract acceleration (R), mm/sec^2
M205 X8.00 Y8.00 Z0.40 E4.50 ; sets the jerk limits, mm/sec
M205 S0 T0 ; sets the minimum extruding and travel feed rate, mm/sec

; printing object j-link-enclosure-floor.stl id:0 copy 0
; stop printing object j-link-enclosure-floor.stl id:0 copy 0
; printing object j-link-enclosure-lid.stl id:1 copy 0
; stop printing object j-link-enclosure-lid.stl id:1 copy 0

;TYPE:Custom
M862.3 P "MK3S" ; printer model check
M862.1 P0.4 ; nozzle diameter check
M115 U3.13.3 ; tell printer latest fw version
G90 ; use absolute coordinates
M83 ; extruder relative mode
M104 S255 ; set extruder temp
M140 S100 ; set bed temp
M190 S100 ; wait for bed temp
M109 S255 ; wait for extruder temp
G28 W ; home all without mesh bed level
G80 X78.6844 Y69.2344 W91.3312 H71.5312 ; mesh bed levelling

G1 Z0.2 F720
G1 Y-3 F1000 ; go outside print area
G92 E0
G1 X60 E9 F1000 ; intro line
G1 X100 E12.5 F1000 ; intro line

G92 E0
M221 S95

; Don't change E values below. Excessive value can damage the printer.

M907 E538 ; set extruder motor current
G21 ; set units to millimeters
G90 ; use absolute coordinates
M83 ; use relative distances for extrusion

M900 K0.04 ; Filament gcode LA 1.5
M900 K20 ; Filament gcode LA 1.0




M107
;LAYER_CHANGE
;Z:0.2
;HEIGHT:0.2
G1 E-.8 F2100
G1 Z.6 F720
G1 X79.265 Y71.443 F10800
G1 Z.2 F720
G1 E.8 F2100
M204 S800
;TYPE:Skirt/Brim
;WIDTH:0.42
G1 F1200
G1 X80.31 Y70.567 E.04275
G1 X81.201 Y70.373 E.02859
G1 X127.55 Y69.423 E1.45355
G1 X166.95 Y69.423 E1.23536
G1 X168.631 Y70.119 E.05705
G1 X169.131 Y70.619 E.02217
G1 X169.827 Y72.3 E.05705
G1 X169.827 Y137.7 E2.05057
G1 X169.131 Y139.381 E.05705
G1 X168.631 Y139.881 E.02217
G1 X166.95 Y140.577 E.05705
G1 X127.501 Y140.577 E1.2369
G1 X81.201 Y139.627 E1.45201
G1 X79.903 Y139.208 E.04277
G1 X79.048 Y138.145 E.04277
G1 X78.873 Y137.25 E.02859
G1 X78.873 Y72.75 E2.02235
G1 X79.247 Y71.5 E.04091
M204 S1000
;WIPE_START
G1 F8640
G1 X79.265 Y71.443 E-.0138
G1 X80.31 Y70.567 E-.31486
G1 X81.201 Y70.373 E-.21055
G1 X82.33 Y70.35 E-.26079
;WIPE_END
G1 Z.6 F720
; printing object j-link-enclosure-floor.stl id:0 copy 0
G1 X116.681 Y106.654 F10800
G1 Z.2 F720
G1 E.8 F2100
M204 S800
;TYPE:Perimeter
;WIDTH:0.419999
G1 F1200
G1 X117.051 Y106.618 E.01166
G1 X117.462 Y106.492 E.01348
G1 X117.84 Y106.286 E.0135
G1 X118.17 Y106.01 E.01349
G1 X118.497 Y105.578 E.01699
;WIDTH:0.460709
G1 X118.57 Y105.433 E.00564
;WIDTH:0.501418
G1 X118.643 Y105.288 E.00619
;WIDTH:0.542128
G1 X118.715 Y105.143 E.00672
;WIDTH:0.582837
G1 X118.788 Y104.998 E.00729
;WIDTH:0.623546
G1 X118.861 Y104.853 E.00784
G1 X118.882 Y104.956 E.00508
;WIDTH:0.582837
G1 X118.902 Y105.059 E.00471
;WIDTH:0.542128
G1 X118.922 Y105.161 E.00431
;WIDTH:0.501418
G1 X118.943 Y105.264 E.00401
;WIDTH:0.460709
G1 X118.963 Y105.366 E.00361
;WIDTH:0.419999
G1 X118.963 Y136.463 E.97502
G1 X82.037 Y136.463 E1.15779
G1 X82.037 Y105.336 E.97596
M73 Q0 S94
;WIDTH:0.463509
G1 X82.059 Y105.255 E.00294
;WIDTH:0.507018
G1 X82.081 Y105.175 E.0032
;WIDTH:0.550528
G1 X82.102 Y105.094 E.00353
;WIDTH:0.594037
G1 X82.124 Y105.014 E.0038
;WIDTH:0.637546
G1 X82.146 Y104.933 E.00415
G1 X82.188 Y105.009 E.00429
;WIDTH:0.590858
G1 X82.281 Y105.174 E.00863
;WIDTH:0.548144
G1 X82.374 Y105.339 E.00796
;WIDTH:0.505429
G1 X82.466 Y105.505 E.0073
;WIDTH:0.462714
G1 X82.559 Y105.67 E.00661
;WIDTH:0.419999
G1 X82.827 Y106.007 E.0135
G1 X83.156 Y106.283 E.01346
G1 X83.534 Y106.49 E.01351
G1 X83.945 Y106.617 E.01349
G1 X84.373 Y106.66 E.01349
G1 X84.801 Y106.618 E.01348
G1 X85.212 Y106.492 E.01348
G1 X85.59 Y106.286 E.0135
G1 X85.92 Y106.01 E.01349
G1 X86.188 Y105.674 E.01348
G1 X86.415 Y105.216 E.01603
G1 X86.519 Y104.724 E.01577
G1 X86.505 Y104.169 E.01741
G1 X86.387 Y103.713 E.01477
G1 X86.191 Y103.33 E.01349
G1 X85.923 Y102.993 E.0135
G1 X85.594 Y102.717 E.01346
G1 X85.216 Y102.51 E.01351
G1 X84.805 Y102.383 E.01349
G1 X84.377 Y102.34 E.01349
G1 X83.949 Y102.382 E.01348
G1 X83.538 Y102.508 E.01348
G1 X83.16 Y102.714 E.0135
G1 X82.83 Y102.99 E.01349
G1 X82.503 Y103.422 E.01699
;WIDTH:0.462863
G1 X82.431 Y103.557 E.00534
;WIDTH:0.505727
G1 X82.36 Y103.692 E.00587
;WIDTH:0.548591
G1 X82.288 Y103.826 E.0064
;WIDTH:0.591455
G1 X82.216 Y103.961 E.00698
;WIDTH:0.634318
G1 X82.144 Y104.096 E.00752
G1 X82.123 Y104.004 E.00464
;WIDTH:0.591455
G1 X82.101 Y103.911 E.00436
;WIDTH:0.548591
G1 X82.08 Y103.819 E.00397
;WIDTH:0.505727
G1 X82.059 Y103.726 E.00367
;WIDTH:0.462863
G1 X82.037 Y103.634 E.0033
;WIDTH:0.419999
G1 X82.037 Y73.537 E.94367
G1 X118.963 Y73.537 E1.15779
G1 X118.963 Y91.739 E.57071
G1 X118.963 Y103.515 E.36923
;WIDTH:0.467564
G1 X118.939 Y103.608 E.00339
;WIDTH:0.515128
G1 X118.915 Y103.702 E.00381
;WIDTH:0.562692
G1 X118.892 Y103.795 E.00414
;WIDTH:0.610256
G1 X118.868 Y103.888 E.00453
;WIDTH:0.65782
G1 X118.844 Y103.982 E.00496
G1 X118.763 Y103.851 E.00787
;WIDTH:0.610256
G1 X118.683 Y103.721 E.0072
;WIDTH:0.562692
G1 X118.602 Y103.591 E.00662
;WIDTH:0.515128
G1 X118.522 Y103.46 E.00603
;WIDTH:0.467564
G1 X118.441 Y103.33 E.00541
;WIDTH:0.419999
G1 X118.173 Y102.993 E.0135
G1 X117.844 Y102.717 E.01346
G1 X117.466 Y102.51 E.01351
G1 X117.055 Y102.383 E.01349
G1 X116.627 Y102.34 E.01349
G1 X116.199 Y102.382 E.01348
G1 X115.788 Y102.508 E.01348
G1 X115.41 Y102.714 E.0135
G1 X115.08 Y102.99 E.01349
G1 X114.812 Y103.326 E.01348
G1 X114.585 Y103.784 E.01603
G1 X114.481 Y104.276 E.01577
G1 X114.495 Y104.831 E.01741
G1 X114.613 Y105.287 E.01477
G1 X114.809 Y105.67 E.01349
G1 X115.077 Y106.007 E.0135
G1 X115.406 Y106.283 E.01346
G1 X115.784 Y106.49 E.01351
G1 X116.195 Y106.617 E.01349
G1 X116.622 Y106.66 E.01346
M204 S1000
;WIPE_START
G1 F8640
G1 X116.681 Y106.654 E-.01369
G1 X117.051 Y106.618 E-.08584
G1 X117.462 Y106.492 E-.09926
G1 X117.84 Y106.286 E-.0994
G1 X118.17 Y106.01 E-.09934
G1 X118.497 Y105.578 E-.1251
G1 X118.57 Y105.433 E-.03748
G1 X118.643 Y105.288 E-.03748
G1 X118.715 Y105.143 E-.03738
G1 X118.788 Y104.998 E-.03748
G1 X118.861 Y104.853 E-.03748
G1 X118.882 Y104.956 E-.02427
G1 X118.902 Y105.059 E-.02423
G1 X118.922 Y105.161 E-.024
G1 X118.937 Y105.235 E-.01757
;WIPE_END
G1 Z.6 F720
G1 X81.66 Y136.84 F10800
G1 Z.2 F720
G1 E.8 F2100
M204 S800
;TYPE:External perimeter
G1 F1200
G1 X81.66 Y73.16 E1.99664
G1 X119.34 Y73.16 E1.18143
G1 X119.34 Y91.739 E.58253
G1 X119.34 Y136.84 E1.41411
G1 X81.72 Y136.84 E1.17955
M73 P0 R93
M204 S1000
;WIPE_START
G1 F8640
G1 X81.66 Y136.84 E-.01385
G1 X81.66 Y133.435 E-.78615
;WIPE_END
G1 Z.6 F720
G1 X116.556 Y106.276 F10800
G1 Z.2 F720
G1 E.8 F2100
M204 S800
G1 F1200
G1 X116.297 Y106.254 E.00815
G1 X115.956 Y106.154 E.01114
G1 X115.641 Y105.989 E.01115
G1 X115.366 Y105.764 E.01114
G1 X115.14 Y105.49 E.01114
G1 X114.974 Y105.176 E.01114
G1 X114.872 Y104.821 E.01158
G1 X114.858 Y104.263 E.0175
G1 X114.943 Y103.904 E.01157
G1 X115.112 Y103.554 E.01219
G1 X115.33 Y103.273 E.01115
G1 X115.599 Y103.04 E.01116
G1 X115.908 Y102.866 E.01112
G1 X116.246 Y102.756 E.01114
G1 X116.599 Y102.716 E.01114
G1 X116.953 Y102.746 E.01114
G1 X117.294 Y102.846 E.01114
G1 X117.609 Y103.011 E.01115
G1 X117.884 Y103.236 E.01114
G1 X118.11 Y103.51 E.01114
G1 X118.276 Y103.824 E.01114
G1 X118.378 Y104.179 E.01158
G1 X118.392 Y104.733 E.01738
G1 X118.295 Y105.128 E.01275
G1 X118.138 Y105.446 E.01112
G1 X117.92 Y105.727 E.01115
G1 X117.651 Y105.96 E.01116
G1 X117.342 Y106.134 E.01112
G1 X117.004 Y106.244 E.01114
G1 X116.651 Y106.284 E.01114
G1 X116.616 Y106.281 E.0011
M204 S1000
;WIPE_START
G1 F8640
G1 X116.556 Y106.276 E-.0139
G1 X116.297 Y106.254 E-.06002
G1 X115.956 Y106.154 E-.08205
G1 X115.641 Y105.989 E-.08211
G1 X115.366 Y105.764 E-.08204
G1 X115.14 Y105.49 E-.08201
G1 X114.974 Y105.176 E-.08201
G1 X114.872 Y104.821 E-.08529
G1 X114.858 Y104.263 E-.12888
G1 X114.943 Y103.904 E-.08519
G1 X114.974 Y103.84 E-.0165
;WIPE_END
G1 Z.6 F720
G1 X118.844 Y103.982 F10800
G1 Z.2 F720
G1 E.8 F2100
M204 S800
;TYPE:Perimeter
;WIDTH:0.65782
G1 F1200
G1 X118.866 Y104.721 E.0378
;WIDTH:0.623546
G1 X118.861 Y104.853 E.00638
M204 S1000
;WIPE_START
G1 F8640
G1 X118.866 Y104.721 E-.0305
G1 X118.844 Y103.982 E-.17071
;WIPE_END
G1 E-.59879 F2100
G1 Z.6 F720
G1 X82.853 Y103.572 F10800
G1 Z.2 F720
G1 E.8 F2100
M204 S800
;TYPE:External perimeter
;WIDTH:0.419999
G1 F1200
G1 X82.862 Y103.554 E.00063
G1 X83.08 Y103.273 E.01115
G1 X83.349 Y103.04 E.01116
G1 X83.658 Y102.866 E.01112
G1 X83.996 Y102.756 E.01114
G1 X84.349 Y102.716 E.01114
G1 X84.703 Y102.746 E.01114
G1 X85.044 Y102.846 E.01114
G1 X85.359 Y103.011 E.01115
G1 X85.634 Y103.236 E.01114
G1 X85.86 Y103.51 E.01114
G1 X86.026 Y103.824 E.01114
G1 X86.128 Y104.179 E.01158
G1 X86.142 Y104.737 E.0175
G1 X86.045 Y105.128 E.01263
G1 X85.888 Y105.446 E.01112
G1 X85.67 Y105.727 E.01115
G1 X85.401 Y105.96 E.01116
G1 X85.092 Y106.134 E.01112
G1 X84.754 Y106.244 E.01114
G1 X84.401 Y106.284 E.01114
G1 X84.047 Y106.254 E.01114
G1 X83.706 Y106.154 E.01114
G1 X83.391 Y105.989 E.01115
G1 X83.116 Y105.764 E.01114
G1 X82.89 Y105.49 E.01114
G1 X82.724 Y105.176 E.01114
G1 X82.622 Y104.821 E.01158
G1 X82.608 Y104.267 E.01738
G1 X82.705 Y103.872 E.01275
G1 X82.827 Y103.625 E.00864
M204 S1000
;WIPE_START
G1 F8640
G1 X82.853 Y103.572 E-.01363
G1 X82.862 Y103.554 E-.00465
G1 X83.08 Y103.273 E-.08212
G1 X83.349 Y103.04 E-.08217
G1 X83.658 Y102.866 E-.08188
G1 X83.996 Y102.756 E-.08207
G1 X84.349 Y102.716 E-.08203
G1 X84.703 Y102.746 E-.08203
G1 X85.044 Y102.846 E-.08205
G1 X85.359 Y103.011 E-.08211
G1 X85.634 Y103.236 E-.08204
G1 X85.753 Y103.381 E-.04322
;WIPE_END
G1 Z.6 F720
G1 X82.146 Y104.933 F10800
G1 Z.2 F720
G1 E.8 F2100
M204 S800
;TYPE:Perimeter
;WIDTH:0.637546
G1 F1200
G1 X82.134 Y104.279 E.03234
;WIDTH:0.634318
G1 X82.144 Y104.096 E.00901
M204 S1000
;WIPE_START
G1 F8640
G1 X82.134 Y104.279 E-.04232
G1 X82.146 Y104.933 E-.15104
;WIPE_END
G1 E-.60664 F2100
G1 Z.6 F720
G1 X118.793 Y74.47 F10800
G1 Z.2 F720
G1 E.8 F2100
M204 S800
;TYPE:Solid infill
;WIDTH:0.420227
G1 F1200
G1 X118.2 Y73.876 E.02633
G1 X117.667 Y73.876 E.01672
G1 X118.624 Y74.833 E.04246
G1 X118.624 Y75.367 E.01675
G1 X117.133 Y73.876 E.06615
G1 X116.599 Y73.876 E.01675
G1 X118.624 Y75.901 E.08985
G1 X118.624 Y76.434 E.01672
G1 X116.066 Y73.876 E.11349
G1 X115.532 Y73.876 E.01675
G1 X118.624 Y76.968 E.13719
G1 X118.624 Y77.501 E.01672
G1 X114.999 Y73.876 E.16084
G1 X114.465 Y73.876 E.01675
G1 X118.624 Y78.035 E.18453
G1 X118.624 Y78.569 E.01675
G1 X113.931 Y73.876 E.20822
G1 X113.398 Y73.876 E.01672
G1 X118.624 Y79.102 E.23187
G1 X118.624 Y79.636 E.01675
G1 X112.864 Y73.876 E.25556
G1 X112.331 Y73.876 E.01672
G1 X118.624 Y80.169 E.27921
G1 X118.624 Y80.703 E.01675
G1 X111.797 Y73.876 E.3029
G1 X111.263 Y73.876 E.01675
G1 X118.624 Y81.237 E.3266
G1 X118.624 Y81.77 E.01672
G1 X110.73 Y73.876 E.35024
G1 X110.196 Y73.876 E.01675
G1 X118.624 Y82.304 E.37394
G1 X118.624 Y82.837 E.01672
G1 X109.663 Y73.876 E.39759
G1 X109.129 Y73.876 E.01675
G1 X118.624 Y83.371 E.42128
G1 X118.624 Y83.904 E.01672
M73 P1 R93
M73 Q1 S94
G1 X108.596 Y73.876 E.44493
G1 X108.062 Y73.876 E.01675
G1 X118.624 Y84.438 E.46862
G1 X118.624 Y84.972 E.01675
G1 X107.528 Y73.876 E.49231
G1 X106.995 Y73.876 E.01672
G1 X118.624 Y85.505 E.51596
G1 X118.624 Y86.039 E.01675
G1 X106.461 Y73.876 E.53965
G1 X105.928 Y73.876 E.01672
G1 X118.624 Y86.572 E.5633
G1 X118.624 Y87.106 E.01675
G1 X105.394 Y73.876 E.58699
G1 X104.86 Y73.876 E.01675
G1 X118.624 Y87.64 E.61069
G1 X118.624 Y88.173 E.01672
G1 X104.327 Y73.876 E.63434
G1 X103.793 Y73.876 E.01675
G1 X118.624 Y88.707 E.65803
G1 X118.624 Y89.24 E.01672
G1 X103.26 Y73.876 E.68168
G1 X102.726 Y73.876 E.01675
G1 X118.624 Y89.774 E.70537
G1 X118.624 Y90.308 E.01675
G1 X102.192 Y73.876 E.72906
G1 X101.659 Y73.876 E.01672
G1 X118.624 Y90.841 E.75271
G1 X118.624 Y91.375 E.01675
G1 X101.125 Y73.876 E.7764
G1 X100.592 Y73.876 E.01672
G1 X118.624 Y91.908 E.80005
G1 X118.624 Y92.442 E.01675
G1 X100.058 Y73.876 E.82374
G1 X99.524 Y73.876 E.01675
G1 X118.624 Y92.976 E.84744
G1 X118.624 Y93.509 E.01672
G1 X98.991 Y73.876 E.87109
G1 X98.457 Y73.876 E.01675
G1 X118.624 Y94.043 E.89478
G1 X118.624 Y94.576 E.01672
G1 X97.924 Y73.876 E.91843
G1 X97.39 Y73.876 E.01675
G1 X118.624 Y95.11 E.94212
G1 X118.624 Y95.644 E.01675
G1 X96.856 Y73.876 E.96581
G1 X96.323 Y73.876 E.01672
G1 X118.624 Y96.177 E.98946
G1 X118.624 Y96.711 E.01675
G1 X95.789 Y73.876 E1.01315
G1 X95.256 Y73.876 E.01672
M73 Q1 S93
G1 X118.624 Y97.244 E1.0368
G1 X118.624 Y97.778 E.01675
G1 X94.722 Y73.876 E1.06049
G1 X94.189 Y73.876 E.01672
G1 X118.624 Y98.312 E1.08416
G1 X118.624 Y98.845 E.01672
G1 X93.655 Y73.876 E1.10783
G1 X93.121 Y73.876 E.01675
G1 X118.624 Y99.379 E1.13153
G1 X118.624 Y99.912 E.01672
G1 X92.588 Y73.876 E1.15518
G1 X92.054 Y73.876 E.01675
G1 X118.624 Y100.446 E1.17887
G1 X118.624 Y100.979 E.01672
G1 X91.521 Y73.876 E1.20252
G1 X90.987 Y73.876 E.01675
G1 X118.624 Y101.513 E1.22621
G1 X118.624 Y102.047 E.01675
M73 P1 R92
G1 X90.453 Y73.876 E1.2499
G1 X89.92 Y73.876 E.01672
G1 X118.624 Y102.58 E1.27355
G1 X118.624 Y103.018 E.01374
G1 X118.43 Y102.771 E.00985
G1 X118.308 Y102.652 E.00535
G1 X117.915 Y102.359 E.01538
G1 X117.82 Y102.31 E.00335
G1 X89.386 Y73.876 E1.26157
G1 X88.853 Y73.876 E.01672
G1 X117.016 Y102.04 E1.24957
G1 X116.643 Y102 E.01177
G1 X116.46 Y102.017 E.00577
G1 X88.319 Y73.876 E1.24857
G1 X87.785 Y73.876 E.01675
M73 P2 R92
G1 X115.991 Y102.082 E1.25146
M73 Q2 S93
G1 X115.602 Y102.227 E.01302
G1 X87.252 Y73.876 E1.25787
G1 X86.718 Y73.876 E.01675
G1 X115.256 Y102.415 E1.26621
G1 X115.157 Y102.473 E.0036
G1 X114.959 Y102.651 E.00835
G1 X86.185 Y73.876 E1.27668
G1 X85.651 Y73.876 E.01675
G1 X114.696 Y102.921 E1.28868
G1 X114.472 Y103.231 E.012
G1 X85.117 Y73.876 E1.30243
G1 X84.584 Y73.876 E.01672
G1 X114.296 Y103.589 E1.3183
G1 X114.179 Y104.005 E.01356
G1 X84.05 Y73.876 E1.33678
G1 X83.517 Y73.876 E.01672
G1 X114.321 Y104.681 E1.36675
M204 S1000
;WIPE_START
G1 F8640
G1 X111.871 Y102.231 E-.8
;WIPE_END
G1 Z.6 F720
G1 X118.355 Y106.047 F10800
G1 Z.2 F720
G1 E.8 F2100
M204 S800
G1 F1200
G1 X118.624 Y106.315 E.01191
G1 X118.624 Y106.849 E.01675
G1 X118.2 Y106.425 E.01881
G1 X118.02 Y106.574 E.00733
G1 X117.89 Y106.649 E.00471
G1 X118.624 Y107.383 E.03257
G1 X118.624 Y107.916 E.01672
G1 X117.526 Y106.819 E.04869
G1 X117.264 Y106.916 E.00877
G1 X117.122 Y106.949 E.00457
G1 X118.624 Y108.45 E.06662
G1 X118.624 Y108.983 E.01672
G1 X116.453 Y106.813 E.0963
M204 S1000
;WIPE_START
G1 F8640
G1 X118.624 Y108.983 E-.70877
G1 X118.624 Y108.588 E-.09123
;WIPE_END
G1 Z.6 F720
G1 X118.793 Y109.687 F10800
G1 Z.2 F720
G1 E.8 F2100
M204 S800
G1 F1200
G1 X116.026 Y106.919 E.12279
G1 X115.639 Y106.797 E.01273
G1 X115.261 Y106.598 E.0134
G1 X114.891 Y106.304 E.01483
G1 X114.578 Y105.939 E.01509
G1 X114.323 Y105.48 E.01647
G1 X114.2 Y105.093 E.01274
G1 X82.983 Y73.876 E1.38505
G1 X82.449 Y73.876 E.01675
G1 X118.624 Y110.051 E1.60503
G1 X118.624 Y110.584 E.01672
G1 X82.376 Y74.337 E1.60824
G1 X82.376 Y74.871 E.01675
G1 X118.624 Y111.118 E1.60824
G1 X118.624 Y111.651 E.01672
G1 X82.376 Y75.404 E1.60824
G1 X82.376 Y75.938 E.01675
M73 Q2 S92
G1 X118.624 Y112.185 E1.60824
G1 X118.624 Y112.719 E.01675
G1 X82.376 Y76.471 E1.60827
G1 X82.376 Y77.005 E.01675
G1 X118.624 Y113.252 E1.60824
G1 X118.624 Y113.786 E.01675
G1 X82.376 Y77.539 E1.60824
G1 X82.376 Y78.072 E.01672
G1 X118.624 Y114.319 E1.60824
G1 X118.624 Y114.853 E.01675
