; generated by PrusaSlicer 2.7.4 on 2024-05-01 at 19:55:06 UTC


;
;
; 

; external perimeters extrusion width = 0.45mm
; perimeters extrusion width = 0.45mm
; infill extrusion width = 0.45mm
; solid infill extrusion width = 0.45mm
; top infill extrusion width = 0.40mm
; first layer extrusion width = 0.42mm

M73 P0 R52
M73 Q0 S53
M201 X1000 Y1000 Z200 E5000 ; sets maximum accelerations, mm/sec^2
M203 X200 Y200 Z12 E120 ; sets maximum feedrates, mm / sec
M204 S1250 T1250 ; sets acceleration (S) and retract acceleration (R), mm/sec^2
M205 X8.00 Y8.00 Z0.40 E4.50 ; sets the jerk limits, mm/sec
M205 S0 T0 ; sets the minimum extruding and travel feed rate, mm/sec

; printing object j-link-enclosure-lid.stl id:0 copy 0
; stop printing object j-link-enclosure-lid.stl id:0 copy 0

;TYPE:Custom
M862.3 P "MK3S" ; printer model check
M862.1 P0.4 ; nozzle diameter check
M115 U3.13.3 ; tell printer latest fw version
G90 ; use absolute coordinates
M83 ; extruder relative mode
M104 S215 ; set extruder temp
M140 S60 ; set bed temp
M190 S60 ; wait for bed temp
M109 S215 ; wait for extruder temp
G28 W ; home all without mesh bed level
G80 X100.934 Y67.9344 W48.1312 H74.1312 ; mesh bed levelling

G1 Z0.2 F720
G1 Y-3 F1000 ; go outside print area
G92 E0
G1 X60 E9 F1000 ; intro line
G1 X100 E12.5 F1000 ; intro line

G92 E0
M221 S95

; Don't change E values below. Excessive value can damage the printer.

M907 E538 ; set extruder motor current
G21 ; set units to millimeters
G90 ; use absolute coordinates
M83 ; use relative distances for extrusion

M900 K0.05 ; Filament gcode LA 1.5
M900 K30 ; Filament gcode LA 1.0




M107
;LAYER_CHANGE
;Z:0.2
;HEIGHT:0.2
G1 E-.8 F2100
G1 Z.6 F720
G1 X101.515 Y69.193 F10800
G1 Z.2 F720
G1 E.8 F2100
M204 S800
;TYPE:Skirt/Brim
;WIDTH:0.42
G1 F1200
G1 X102.56 Y68.317 E.04275
G1 X103.5 Y68.123 E.03009
G1 X146.5 Y68.123 E1.34823
G1 X147.807 Y68.515 E.04278
G1 X148.683 Y69.56 E.04275
G1 X148.877 Y70.5 E.03009
G1 X148.877 Y139.5 E2.16345
G1 X148.485 Y140.807 E.04278
G1 X147.44 Y141.683 E.04275
G1 X146.5 Y141.877 E.03009
G1 X103.5 Y141.877 E1.34823
G1 X102.193 Y141.485 E.04278
G1 X101.317 Y140.44 E.04275
G1 X101.123 Y139.5 E.03009
G1 X101.123 Y70.5 E2.16345
G1 X101.497 Y69.25 E.04091
M73 P0 R51
M204 S1000
;WIPE_START
G1 F8640
G1 X101.515 Y69.193 E-.0138
G1 X102.56 Y68.317 E-.31486
G1 X103.5 Y68.123 E-.22162
G1 X104.581 Y68.123 E-.24972
;WIPE_END
G1 Z.6 F720
; printing object j-link-enclosure-lid.stl id:0 copy 0
G1 X145.713 Y138.713 F10800
G1 Z.2 F720
G1 E.8 F2100
M204 S800
;TYPE:Perimeter
;WIDTH:0.419999
G1 F1200
G1 X104.287 Y138.713 E1.29888
G1 X104.287 Y71.287 E2.11409
G1 X145.713 Y71.287 E1.29888
G1 X145.713 Y92 E.64944
G1 X145.713 Y138.653 E1.46277
M204 S1000
G1 X146.09 Y139.09 F10800
M204 S800
;TYPE:External perimeter
G1 F1200
G1 X103.91 Y139.09 E1.32252
G1 X103.91 Y70.91 E2.13773
M73 P1 R51
M73 Q1 S53
G1 X146.09 Y70.91 E1.32252
G1 X146.09 Y92 E.66126
G1 X146.09 Y139.03 E1.47459
M204 S1000
;WIPE_START
G1 F8640
M73 Q1 S52
G1 X146.09 Y139.09 E-.01385
G1 X142.685 Y139.09 E-.78615
;WIPE_END
G1 Z.6 F720
G1 X145.543 Y72.223 F10800
G1 Z.2 F720
G1 E.8 F2100
M204 S800
;TYPE:Solid infill
;WIDTH:0.421846
G1 F1200
G1 X144.947 Y71.626 E.02658
G1 X144.411 Y71.626 E.01689
G1 X145.374 Y72.589 E.04291
G1 X145.374 Y73.125 E.01689
G1 X143.875 Y71.626 E.06679
G1 X143.339 Y71.626 E.01689
G1 X145.374 Y73.661 E.09068
G1 X145.374 Y74.197 E.01689
G1 X142.803 Y71.626 E.11456
G1 X142.267 Y71.626 E.01689
G1 X145.374 Y74.733 E.13844
G1 X145.374 Y75.269 E.01689
G1 X141.731 Y71.626 E.16233
G1 X141.196 Y71.626 E.01686
G1 X145.374 Y75.804 E.18617
G1 X145.374 Y76.34 E.01689
G1 X140.66 Y71.626 E.21005
G1 X140.124 Y71.626 E.01689
G1 X145.374 Y76.876 E.23393
G1 X145.374 Y77.412 E.01689
G1 X139.588 Y71.626 E.25782
G1 X139.052 Y71.626 E.01689
G1 X145.374 Y77.948 E.2817
G1 X145.374 Y78.484 E.01689
G1 X138.516 Y71.626 E.30558
G1 X137.98 Y71.626 E.01689
G1 X145.374 Y79.02 E.32947
G1 X145.374 Y79.556 E.01689
G1 X137.444 Y71.626 E.35335
G1 X136.909 Y71.626 E.01686
G1 X145.374 Y80.092 E.37721
G1 X145.374 Y80.627 E.01686
G1 X136.373 Y71.626 E.40107
G1 X135.837 Y71.626 E.01689
G1 X145.374 Y81.163 E.42496
G1 X145.374 Y81.699 E.01689
G1 X135.301 Y71.626 E.44884
G1 X134.765 Y71.626 E.01689
G1 X145.374 Y82.235 E.47272
G1 X145.374 Y82.771 E.01689
G1 X134.229 Y71.626 E.49661
G1 X133.693 Y71.626 E.01689
G1 X145.374 Y83.307 E.52049
G1 X145.374 Y83.843 E.01689
G1 X133.157 Y71.626 E.54437
G1 X132.621 Y71.626 E.01689
G1 X145.374 Y84.379 E.56826
G1 X145.374 Y84.914 E.01686
G1 X132.086 Y71.626 E.5921
G1 X131.55 Y71.626 E.01689
G1 X145.374 Y85.45 E.61598
G1 X145.374 Y85.986 E.01689
G1 X131.014 Y71.626 E.63986
G1 X130.478 Y71.626 E.01689
G1 X145.374 Y86.522 E.66375
G1 X145.374 Y87.058 E.01689
G1 X129.942 Y71.626 E.68763
G1 X129.406 Y71.626 E.01689
G1 X145.374 Y87.594 E.71151
G1 X145.374 Y88.13 E.01689
G1 X128.87 Y71.626 E.7354
G1 X128.334 Y71.626 E.01689
G1 X145.374 Y88.666 E.75928
G1 X145.374 Y89.202 E.01689
M73 P2 R51
M73 Q2 S52
G1 X127.799 Y71.626 E.78314
G1 X127.263 Y71.626 E.01689
G1 X145.374 Y89.737 E.807
G1 X145.374 Y90.273 E.01689
G1 X126.727 Y71.626 E.83089
G1 X126.191 Y71.626 E.01689
G1 X145.374 Y90.809 E.85477
G1 X145.374 Y91.345 E.01689
G1 X125.655 Y71.626 E.87865
G1 X125.119 Y71.626 E.01689
G1 X145.374 Y91.881 E.90254
G1 X145.374 Y92.417 E.01689
G1 X124.583 Y71.626 E.92642
G1 X124.047 Y71.626 E.01689
G1 X145.374 Y92.953 E.95031
G1 X145.374 Y93.489 E.01689
G1 X123.511 Y71.626 E.97419
G1 X122.976 Y71.626 E.01686
G1 X145.374 Y94.024 E.99803
G1 X145.374 Y94.56 E.01689
G1 X122.44 Y71.626 E1.02191
G1 X121.904 Y71.626 E.01689
M73 P2 R50
G1 X145.374 Y95.096 E1.04579
G1 X145.374 Y95.632 E.01689
G1 X121.368 Y71.626 E1.06968
G1 X120.832 Y71.626 E.01689
G1 X145.374 Y96.168 E1.09356
G1 X145.374 Y96.704 E.01689
G1 X120.296 Y71.626 E1.11745
G1 X119.76 Y71.626 E.01689
G1 X145.374 Y97.24 E1.14133
G1 X145.374 Y97.776 E.01689
G1 X119.224 Y71.626 E1.16521
G1 X118.689 Y71.626 E.01686
G1 X145.374 Y98.311 E1.18905
G1 X145.374 Y98.847 E.01689
G1 X118.153 Y71.626 E1.21293
G1 X117.617 Y71.626 E.01689
M73 P3 R50
G1 X145.374 Y99.383 E1.23682
G1 X145.374 Y99.919 E.01689
M73 Q3 S52
G1 X117.081 Y71.626 E1.2607
G1 X116.545 Y71.626 E.01689
G1 X145.374 Y100.455 E1.28459
G1 X145.374 Y100.991 E.01689
G1 X116.009 Y71.626 E1.30847
G1 X115.473 Y71.626 E.01689
M73 Q3 S51
G1 X145.374 Y101.527 E1.33235
G1 X145.374 Y102.063 E.01689
G1 X114.937 Y71.626 E1.35624
G1 X114.401 Y71.626 E.01689
G1 X145.374 Y102.599 E1.38012
G1 X145.374 Y103.134 E.01686
G1 X113.866 Y71.626 E1.40396
G1 X113.33 Y71.626 E.01689
G1 X145.374 Y103.67 E1.42784
G1 X145.374 Y104.206 E.01689
G1 X112.794 Y71.626 E1.45173
G1 X112.258 Y71.626 E.01689
G1 X145.374 Y104.742 E1.47561
G1 X145.374 Y105.278 E.01689
G1 X111.722 Y71.626 E1.49949
G1 X111.186 Y71.626 E.01689
G1 X145.374 Y105.814 E1.52338
G1 X145.374 Y106.35 E.01689
G1 X110.65 Y71.626 E1.54726
G1 X110.114 Y71.626 E.01689
M73 P4 R50
G1 X145.374 Y106.886 E1.57114
G1 X145.374 Y107.421 E.01686
M73 Q4 S51
G1 X109.579 Y71.626 E1.59498
G1 X109.043 Y71.626 E.01689
G1 X145.374 Y107.957 E1.61887
G1 X145.374 Y108.493 E.01689
G1 X108.507 Y71.626 E1.64275
G1 X107.971 Y71.626 E.01689
G1 X145.374 Y109.029 E1.66663
G1 X145.374 Y109.565 E.01689
M73 P4 R49
G1 X107.435 Y71.626 E1.69052
G1 X106.899 Y71.626 E.01689
G1 X145.374 Y110.101 E1.7144
G1 X145.374 Y110.637 E.01689
G1 X106.363 Y71.626 E1.73828
G1 X105.827 Y71.626 E.01689
G1 X145.374 Y111.173 E1.76217
G1 X145.374 Y111.709 E.01689
G1 X105.291 Y71.626 E1.78605
G1 X104.756 Y71.626 E.01686
G1 X145.374 Y112.244 E1.80989
G1 X145.374 Y112.78 E.01689
G1 X104.626 Y72.033 E1.81566
G1 X104.626 Y72.569 E.01689
M73 P5 R49
G1 X145.374 Y113.316 E1.81566
G1 X145.374 Y113.852 E.01689
M73 Q5 S50
G1 X104.626 Y73.105 E1.81566
G1 X104.626 Y73.641 E.01689
G1 X145.374 Y114.388 E1.81566
G1 X145.374 Y114.924 E.01689
G1 X104.626 Y74.177 E1.81566
G1 X104.626 Y74.713 E.01689
G1 X145.374 Y115.46 E1.81566
G1 X145.374 Y115.996 E.01689
G1 X104.626 Y75.249 E1.81566
G1 X104.626 Y75.784 E.01686
G1 X145.374 Y116.531 E1.81566
G1 X145.374 Y117.067 E.01689
G1 X104.626 Y76.32 E1.81566
G1 X104.626 Y76.856 E.01689
G1 X145.374 Y117.603 E1.81566
G1 X145.374 Y118.139 E.01689
G1 X104.626 Y77.392 E1.81566
G1 X104.626 Y77.928 E.01689
G1 X145.374 Y118.675 E1.81566
M73 P6 R49
G1 X145.374 Y119.211 E.01689
G1 X104.626 Y78.464 E1.81566
G1 X104.626 Y79 E.01689
M73 Q6 S50
G1 X145.374 Y119.747 E1.81566
G1 X145.374 Y120.283 E.01689
G1 X104.626 Y79.536 E1.81566
G1 X104.626 Y80.071 E.01686
M73 P6 R48
G1 X145.374 Y120.819 E1.81568
G1 X145.374 Y121.354 E.01686
G1 X104.626 Y80.607 E1.81566
G1 X104.626 Y81.143 E.01689
G1 X145.374 Y121.89 E1.81566
G1 X145.374 Y122.426 E.01689
G1 X104.626 Y81.679 E1.81566
G1 X104.626 Y82.215 E.01689
G1 X145.374 Y122.962 E1.81566
G1 X145.374 Y123.498 E.01689
G1 X104.626 Y82.751 E1.81566
G1 X104.626 Y83.287 E.01689
G1 X145.374 Y124.034 E1.81566
G1 X145.374 Y124.57 E.01689
M73 P7 R48
G1 X104.626 Y83.823 E1.81566
G1 X104.626 Y84.359 E.01689
M73 Q6 S49
G1 X145.374 Y125.106 E1.81566
G1 X145.374 Y125.641 E.01686
M73 Q7 S49
G1 X104.626 Y84.894 E1.81566
G1 X104.626 Y85.43 E.01689
G1 X145.374 Y126.177 E1.81566
G1 X145.374 Y126.713 E.01689
G1 X104.626 Y85.966 E1.81566
G1 X104.626 Y86.502 E.01689
G1 X145.374 Y127.249 E1.81566
G1 X145.374 Y127.785 E.01689
G1 X104.626 Y87.038 E1.81566
G1 X104.626 Y87.574 E.01689
G1 X145.374 Y128.321 E1.81566
G1 X145.374 Y128.857 E.01689
G1 X104.626 Y88.11 E1.81566
G1 X104.626 Y88.646 E.01689
G1 X145.374 Y129.393 E1.81566
G1 X145.374 Y129.929 E.01689
G1 X104.626 Y89.181 E1.81568
G1 X104.626 Y89.717 E.01689
M73 P8 R48
G1 X145.374 Y130.464 E1.81566
G1 X145.374 Y131 E.01689
G1 X104.626 Y90.253 E1.81566
G1 X104.626 Y90.789 E.01689
M73 Q8 S49
G1 X145.374 Y131.536 E1.81566
G1 X145.374 Y132.072 E.01689
M73 P8 R47
G1 X104.626 Y91.325 E1.81566
G1 X104.626 Y91.861 E.01689
G1 X145.374 Y132.608 E1.81566
G1 X145.374 Y133.144 E.01689
G1 X104.626 Y92.397 E1.81566
G1 X104.626 Y92.933 E.01689
G1 X145.374 Y133.68 E1.81566
G1 X145.374 Y134.216 E.01689
G1 X104.626 Y93.469 E1.81566
G1 X104.626 Y94.004 E.01686
G1 X145.374 Y134.751 E1.81566
G1 X145.374 Y135.287 E.01689
G1 X104.626 Y94.54 E1.81566
G1 X104.626 Y95.076 E.01689
M73 Q8 S48
G1 X145.374 Y135.823 E1.81566
G1 X145.374 Y136.359 E.01689
M73 P9 R47
G1 X104.626 Y95.612 E1.81566
G1 X104.626 Y96.148 E.01689
G1 X145.374 Y136.895 E1.81566
G1 X145.374 Y137.431 E.01689
M73 Q9 S48
G1 X104.626 Y96.684 E1.81566
G1 X104.626 Y97.22 E.01689
G1 X145.374 Y137.967 E1.81566
G1 X145.374 Y138.374 E.01282
G1 X145.244 Y138.374 E.0041
G1 X104.626 Y97.756 E1.80989
G1 X104.626 Y98.291 E.01686
G1 X144.709 Y138.374 E1.78605
G1 X144.173 Y138.374 E.01689
G1 X104.626 Y98.827 E1.76217
G1 X104.626 Y99.363 E.01689
G1 X143.637 Y138.374 E1.73828
G1 X143.101 Y138.374 E.01689
G1 X104.626 Y99.899 E1.7144
G1 X104.626 Y100.435 E.01689
G1 X142.565 Y138.374 E1.69052
G1 X142.029 Y138.374 E.01689
G1 X104.626 Y100.971 E1.66663
G1 X104.626 Y101.507 E.01689
M73 P10 R47
G1 X141.493 Y138.374 E1.64275
G1 X140.957 Y138.374 E.01689
M73 P10 R46
G1 X104.626 Y102.043 E1.61887
G1 X104.626 Y102.579 E.01689
G1 X140.421 Y138.374 E1.59498
G1 X139.886 Y138.374 E.01686
M73 Q10 S48
G1 X104.626 Y103.114 E1.57114
G1 X104.626 Y103.65 E.01689
G1 X139.35 Y138.374 E1.54726
G1 X138.814 Y138.374 E.01689
G1 X104.626 Y104.186 E1.52338
G1 X104.626 Y104.722 E.01689
G1 X138.278 Y138.374 E1.49949
G1 X137.742 Y138.374 E.01689
G1 X104.626 Y105.258 E1.47561
G1 X104.626 Y105.794 E.01689
G1 X137.206 Y138.374 E1.45173
G1 X136.67 Y138.374 E.01689
G1 X104.626 Y106.33 E1.42784
G1 X104.626 Y106.866 E.01689
G1 X136.134 Y138.374 E1.40396
G1 X135.599 Y138.374 E.01686
M73 Q10 S47
G1 X104.626 Y107.401 E1.38012
G1 X104.626 Y107.937 E.01689
M73 P11 R46
G1 X135.063 Y138.374 E1.35624
G1 X134.527 Y138.374 E.01689
G1 X104.626 Y108.473 E1.33235
G1 X104.626 Y109.009 E.01689
G1 X133.991 Y138.374 E1.30847
G1 X133.455 Y138.374 E.01689
G1 X104.626 Y109.545 E1.28459
G1 X104.626 Y110.081 E.01689
M73 Q11 S47
G1 X132.919 Y138.374 E1.2607
G1 X132.383 Y138.374 E.01689
G1 X104.626 Y110.617 E1.23682
G1 X104.626 Y111.153 E.01689
G1 X131.847 Y138.374 E1.21293
G1 X131.311 Y138.374 E.01689
G1 X104.626 Y111.689 E1.18905
G1 X104.626 Y112.224 E.01686
G1 X130.776 Y138.374 E1.16521
G1 X130.24 Y138.374 E.01689
G1 X104.626 Y112.76 E1.14133
G1 X104.626 Y113.296 E.01689
G1 X129.704 Y138.374 E1.11745
G1 X129.168 Y138.374 E.01689
G1 X104.626 Y113.832 E1.09356
G1 X104.626 Y114.368 E.01689
G1 X128.632 Y138.374 E1.06968
G1 X128.096 Y138.374 E.01689
G1 X104.626 Y114.904 E1.04579
G1 X104.626 Y115.44 E.01689
G1 X127.56 Y138.374 E1.02191
G1 X127.024 Y138.374 E.01689
G1 X104.626 Y115.976 E.99803
G1 X104.626 Y116.511 E.01686
G1 X126.489 Y138.374 E.97419
G1 X125.953 Y138.374 E.01689
M73 P12 R46
G1 X104.626 Y117.047 E.95031
G1 X104.626 Y117.583 E.01689
M73 P12 R45
G1 X125.417 Y138.374 E.92642
G1 X124.881 Y138.374 E.01689
G1 X104.626 Y118.119 E.90254
G1 X104.626 Y118.655 E.01689
G1 X124.345 Y138.374 E.87865
G1 X123.809 Y138.374 E.01689
G1 X104.626 Y119.191 E.85477
G1 X104.626 Y119.727 E.01689
G1 X123.273 Y138.374 E.83089
G1 X122.737 Y138.374 E.01689
M73 Q12 S47
G1 X104.626 Y120.263 E.807
G1 X104.626 Y120.799 E.01689
G1 X122.201 Y138.374 E.78312
G1 X121.666 Y138.374 E.01686
G1 X104.626 Y121.334 E.75928
G1 X104.626 Y121.87 E.01689
G1 X121.13 Y138.374 E.7354
G1 X120.594 Y138.374 E.01689
G1 X104.626 Y122.406 E.71151
G1 X104.626 Y122.942 E.01689
G1 X120.058 Y138.374 E.68763
G1 X119.522 Y138.374 E.01689
G1 X104.626 Y123.478 E.66375
G1 X104.626 Y124.014 E.01689
G1 X118.986 Y138.374 E.63986
G1 X118.45 Y138.374 E.01689
G1 X104.626 Y124.55 E.61598
G1 X104.626 Y125.086 E.01689
G1 X117.914 Y138.374 E.5921
G1 X117.379 Y138.374 E.01686
G1 X104.626 Y125.621 E.56826
G1 X104.626 Y126.157 E.01689
G1 X116.843 Y138.374 E.54437
G1 X116.307 Y138.374 E.01689
G1 X104.626 Y126.693 E.52049
G1 X104.626 Y127.229 E.01689
G1 X115.771 Y138.374 E.49661
G1 X115.235 Y138.374 E.01689
G1 X104.626 Y127.765 E.47272
G1 X104.626 Y128.301 E.01689
M73 Q12 S46
G1 X114.699 Y138.374 E.44884
G1 X114.163 Y138.374 E.01689
G1 X104.626 Y128.837 E.42496
G1 X104.626 Y129.373 E.01689
G1 X113.627 Y138.374 E.40107
G1 X113.091 Y138.374 E.01689
G1 X104.626 Y129.909 E.37719
G1 X104.626 Y130.444 E.01686
G1 X112.556 Y138.374 E.35335
G1 X112.02 Y138.374 E.01689
G1 X104.626 Y130.98 E.32947
G1 X104.626 Y131.516 E.01689
G1 X111.484 Y138.374 E.30558
G1 X110.948 Y138.374 E.01689
G1 X104.626 Y132.052 E.2817
G1 X104.626 Y132.588 E.01689
G1 X110.412 Y138.374 E.25782
G1 X109.876 Y138.374 E.01689
G1 X104.626 Y133.124 E.23393
G1 X104.626 Y133.66 E.01689
G1 X109.34 Y138.374 E.21005
G1 X108.804 Y138.374 E.01689
M73 P13 R45
G1 X104.626 Y134.196 E.18617
G1 X104.626 Y134.731 E.01686
G1 X108.269 Y138.374 E.16233
G1 X107.733 Y138.374 E.01689
G1 X104.626 Y135.267 E.13844
G1 X104.626 Y135.803 E.01689
G1 X107.197 Y138.374 E.11456
G1 X106.661 Y138.374 E.01689
G1 X104.626 Y136.339 E.09068
G1 X104.626 Y136.875 E.01689
G1 X106.125 Y138.374 E.06679
G1 X105.589 Y138.374 E.01689
G1 X104.626 Y137.411 E.04291
G1 X104.626 Y137.947 E.01689
G1 X105.223 Y138.543 E.02658
M204 S1000
M106 S84.15
;LAYER_CHANGE
;Z:0.4
;HEIGHT:0.2
;BEFORE_LAYER_CHANGE
G92 E0.0
;0.4


;WIPE_START
G1 F8640
G1 X104.626 Y137.947 E-.19478
G1 X104.626 Y137.411 E-.12376
G1 X105.589 Y138.374 E-.31446
G1 X106.125 Y138.374 E-.12376
G1 X105.993 Y138.242 E-.04324
;WIPE_END
G1 Z.4 F720
;AFTER_LAYER_CHANGE
;0.4
M104 S210 ; set temperature
; stop printing object j-link-enclosure-lid.stl id:0 copy 0
G1 Z.8
G1 X105.993 Y141.877 F10800
G1 Z.4 F720
G1 E.8 F2100
;TYPE:Skirt/Brim
;WIDTH:0.42
G1 F3000
G1 X103.5 Y141.877 E.07817
G1 X102.193 Y141.485 E.04278
G1 X101.317 Y140.44 E.04275
G1 X101.123 Y139.5 E.03009
G1 X101.123 Y70.5 E2.16345
G1 X101.515 Y69.193 E.04278
G1 X102.56 Y68.317 E.04275
G1 X103.5 Y68.123 E.03009
G1 X146.5 Y68.123 E1.34823
G1 X147.807 Y68.515 E.04278
G1 X148.683 Y69.56 E.04275
G1 X148.877 Y70.5 E.03009
G1 X148.877 Y139.5 E2.16345
G1 X148.485 Y140.807 E.04278
G1 X147.44 Y141.683 E.04275
G1 X146.5 Y141.877 E.03009
G1 X106.053 Y141.877 E1.26819
